svg/emoji_u23ef.svg

<svg enable-background="new 0 0 128 128" viewBox="0 0 128 128" xmlns="http://www.w3.org/2000/svg"><linearGradient id="a" x1="64" x2="64" y1="4.25" y2="123.91" gradientUnits="userSpaceOnUse"><stop stop-color="#FFAB40" offset="0"/><stop stop-color="#FF6D00" offset="1"/></linearGradient><path d="m116 124h-104c-4.42 0-8-3.58-8-8v-104c0-4.42 3.58-8 8-8h104c4.42 0 8 3.58 8 8v104c0 4.42-3.58 8-8 8z" fill="url(#a)"/><g opacity=".2"><path d="m116 7c2.76 0 5 2.24 5 5v104c0 2.76-2.24 5-5 5h-104c-2.76 0-5-2.24-5-5v-104c0-2.76 2.24-5 5-5h104m0-3h-104c-4.42 0-8 3.58-8 8v104c0 4.42 3.58 8 8 8h104c4.42 0 8-3.58 8-8v-104c0-4.42-3.58-8-8-8z" fill="#424242"/></g><g fill="#424242" opacity=".2"><path d="m84.13 36c1.03 0 1.87 0.84 1.87 1.87v52.26c0 1.03-0.84 1.87-1.87 1.87h-10.26c-1.03 0-1.87-0.84-1.87-1.87v-52.26c0-1.03 0.84-1.87 1.87-1.87h10.26m0-3h-10.26c-2.68 0-4.87 2.19-4.87 4.87v52.26c0 2.69 2.19 4.87 4.87 4.87h10.26c2.69 0 4.87-2.19 4.87-4.87v-52.26c0-2.68-2.19-4.87-4.87-4.87z"/><path d="m106.13 36c1.03 0 1.87 0.84 1.87 1.87v52.26c0 1.03-0.84 1.87-1.87 1.87h-10.26c-1.03 0-1.87-0.84-1.87-1.87v-52.26c0-1.03 0.84-1.87 1.87-1.87h10.26m0-3h-10.26c-2.68 0-4.87 2.19-4.87 4.87v52.26c0 2.69 2.19 4.87 4.87 4.87h10.26c2.69 0 4.87-2.19 4.87-4.87v-52.26c0-2.68-2.19-4.87-4.87-4.87z"/><path d="m22.28 36c0.38 0 0.76 0.1 1.12 0.31l43.45 25.66c1.53 0.9 1.53 3.16 0 4.05l-43.45 25.67c-0.36 0.21-0.75 0.31-1.12 0.31-1.19 0-2.28-0.98-2.28-2.34v-51.32c0-1.36 1.09-2.34 2.28-2.34m0-3c-2.91 0-5.28 2.39-5.28 5.34v51.32c0 2.94 2.37 5.34 5.28 5.34 0.92 0 1.84-0.25 2.64-0.72l43.46-25.67c1.64-0.96 2.62-2.69 2.62-4.61s-0.98-3.65-2.63-4.61l-43.44-25.66c-0.82-0.48-1.73-0.73-2.65-0.73z"/></g><g fill="#FAFAFA"><path d="M84.13,92H73.87C72.84,92,72,91.16,72,90.13V37.87c0-1.03,0.84-1.87,1.87-1.87h10.26 c1.03,0,1.87,0.84,1.87,1.87v52.26C86,91.16,85.16,92,84.13,92z"/><path d="m106.13 92h-10.26c-1.03 0-1.87-0.84-1.87-1.87v-52.26c0-1.03 0.84-1.87 1.87-1.87h10.26c1.03 0 1.87 0.84 1.87 1.87v52.26c0 1.03-0.84 1.87-1.87 1.87z"/><path d="M20,64V38.34c0-1.79,1.89-2.91,3.4-2.03l43.45,25.66c1.53,0.9,1.53,3.16,0,4.05L23.4,91.69 c-1.52,0.89-3.4-0.23-3.4-2.03V64z"/></g></svg>

<svg width="128" height="128" style="enable-background:new 0 0 128 128;" xmlns="http://www.w3.org/2000/svg" xmlns:xlink="http://www.w3.org/1999/xlink">
  <g>
    <linearGradient id="SVGID_1_" gradientUnits="userSpaceOnUse" x1="64" x2="64" y1="4.25" y2="123.9133">
      <stop offset="0" style="stop-color:#FFAB40"/>
      <stop offset="1" style="stop-color:#FF6D00"/>
    </linearGradient>
    <path d="M116,124H12c-4.42,0-8-3.58-8-8V12c0-4.42,3.58-8,8-8h104c4.42,0,8,3.58,8,8v104 C124,120.42,120.42,124,116,124z" style="fill:url(#SVGID_1_);"/>
    <g style="opacity:0.2;">
      <path d="M116,7c2.76,0,5,2.24,5,5v104c0,2.76-2.24,5-5,5H12c-2.76,0-5-2.24-5-5V12c0-2.76,2.24-5,5-5H116 M116,4H12c-4.42,0-8,3.58-8,8v104c0,4.42,3.58,8,8,8h104c4.42,0,8-3.58,8-8V12C124,7.58,120.42,4,116,4L116,4z" style="fill:#424242;"/>
    </g>
    <g style="opacity:0.2;">
      <path d="M84.13,36c1.03,0,1.87,0.84,1.87,1.87v52.26c0,1.03-0.84,1.87-1.87,1.87H73.87 C72.84,92,72,91.16,72,90.13V37.87c0-1.03,0.84-1.87,1.87-1.87H84.13 M84.13,33H73.87C71.19,33,69,35.19,69,37.87v52.26 c0,2.69,2.19,4.87,4.87,4.87h10.26c2.69,0,4.87-2.19,4.87-4.87V37.87C89,35.19,86.81,33,84.13,33L84.13,33z" style="fill:#424242;"/>
      <path d="M106.13,36c1.03,0,1.87,0.84,1.87,1.87v52.26c0,1.03-0.84,1.87-1.87,1.87H95.87 C94.84,92,94,91.16,94,90.13V37.87c0-1.03,0.84-1.87,1.87-1.87H106.13 M106.13,33H95.87C93.19,33,91,35.19,91,37.87v52.26 c0,2.69,2.19,4.87,4.87,4.87h10.26c2.69,0,4.87-2.19,4.87-4.87V37.87C111,35.19,108.81,33,106.13,33L106.13,33z" style="fill:#424242;"/>
      <path d="M22.28,36c0.38,0,0.76,0.1,1.12,0.31l43.45,25.66c1.53,0.9,1.53,3.16,0,4.05L23.4,91.69 C23.04,91.9,22.65,92,22.28,92C21.09,92,20,91.02,20,89.66V64V38.34C20,36.98,21.09,36,22.28,36 M22.28,33L22.28,33 C19.37,33,17,35.39,17,38.34V64v25.66c0,2.94,2.37,5.34,5.28,5.34c0.92,0,1.84-0.25,2.64-0.72l43.46-25.67 C70.02,67.65,71,65.92,71,64s-0.98-3.65-2.63-4.61L24.93,33.73C24.11,33.25,23.2,33,22.28,33L22.28,33z" style="fill:#424242;"/>
    </g>
    <g>
      <path d="M84.13,92H73.87C72.84,92,72,91.16,72,90.13V37.87c0-1.03,0.84-1.87,1.87-1.87h10.26 c1.03,0,1.87,0.84,1.87,1.87v52.26C86,91.16,85.16,92,84.13,92z" style="fill:#FAFAFA;"/>
      <path d="M106.13,92H95.87C94.84,92,94,91.16,94,90.13V37.87c0-1.03,0.84-1.87,1.87-1.87h10.26 c1.03,0,1.87,0.84,1.87,1.87v52.26C108,91.16,107.16,92,106.13,92z" style="fill:#FAFAFA;"/>
      <path d="M20,64V38.34c0-1.79,1.89-2.91,3.4-2.03l43.45,25.66c1.53,0.9,1.53,3.16,0,4.05L23.4,91.69 c-1.52,0.89-3.4-0.23-3.4-2.03V64z" style="fill:#FAFAFA;"/>
    </g>
  </g>
</svg>
